X: 1
T: G\aangl\aat efter Paul Dahlin
R: g\aangl\aat, snoa
M: 2/4
L: 1/16
Z: John Chambers <jc@trillian.mit.edu>
K: D
A2 | \
"D"d3A A2F2 | D2DD F2E2 | D2DD F2A2 | d6 B2 |\
"G"G2GG B2B2 | "D"F2FF A2A2 | "A"E2EA c2c2 | "D"d6 :|
|: A2 |\
"D"d6 cd | "A"e2e2 c4 | e6 de | "D"f2f2 d3B |\
"G"G2GG B2B2 | "D"F2FF A2A2 | "A"E2EA c2c2 | "D"d6 :|
